source/icon/attending.svg

<svg width="72" height="72" viewBox="0 0 72 72" fill="none" xmlns="http://www.w3.org/2000/svg">
<rect width="72" height="72" fill="white"/>
<path fill-rule="evenodd" clip-rule="evenodd" d="M27.7369 57.8648C21.0397 58.2588 16.309 59.8998 16.1027 62.258C15.8139 65.5591 24.5 69.0156 35.5036 69.9783C46.5073 70.941 55.6616 69.0454 55.9505 65.7443C56.1568 63.386 51.7829 60.9485 45.2558 59.3975L43.2611 61.623C45.0502 62.4172 46.1174 63.3992 46.0321 64.3746C45.8636 66.3003 41.2669 67.4711 35.7651 66.9897C30.2633 66.5084 25.9397 64.5571 26.1082 62.6315C26.1935 61.6561 27.4151 60.8743 29.3149 60.4029L27.7369 57.8648Z" fill="#475497"/>
<path d="M57 21.4286C57 30.4089 44.0336 52.7966 38.4782 61.9764C37.3387 63.8593 34.6613 63.8593 33.5218 61.9764C27.9664 52.7967 15 30.4089 15 21.4286C15 10 24.8824 2 36 2C47.1176 2 57 10 57 21.4286Z" fill="#475497"/>
<ellipse cx="36" cy="21.5" rx="10" ry="9.5" fill="white"/>
</svg>

<svg width="72" height="72" fill="none" xmlns="http://www.w3.org/2000/svg"><path fill="#fff" d="M0 0H72V72H0z"/><path fill-rule="evenodd" clip-rule="evenodd" d="M27.737 57.865c-6.697.394-11.428 2.035-11.634 4.393-.29 3.301 8.397 6.758 19.4 7.72 11.004.963 20.159-.933 20.447-4.234.207-2.358-4.167-4.795-10.694-6.346l-1.995 2.225c1.79.794 2.856 1.776 2.771 2.752-.168 1.925-4.765 3.096-10.267 2.615-5.502-.482-9.825-2.433-9.657-4.358.085-.976 1.307-1.758 3.207-2.23l-1.578-2.537z" fill="#475497"/><path d="M57 21.429c0 8.98-12.966 31.368-18.522 40.547a2.88 2.88 0 0 1-4.956 0C27.966 52.796 15 30.41 15 21.43 15 10 24.882 2 36 2s21 8 21 19.429z" fill="#475497"/><ellipse cx="36" cy="21.5" rx="10" ry="9.5" fill="#fff"/></svg>
